icons/editor-bold-2-filled.svg

<svg width="24" height="24" viewBox="0 0 24 24" fill="none" xmlns="http://www.w3.org/2000/svg">
<g id="bold-02">
<path id="Icon" d="M8.40039 16.8004H7.40039V17.8004H8.40039V16.8004ZM8.40039 7.20039V6.20039H7.40039V7.20039H8.40039ZM13.2604 15.8004H8.40039V17.8004H13.2604V15.8004ZM9.40039 16.8004V12.0004H7.40039V16.8004H9.40039ZM16.6004 14.4004C16.6004 12.5466 15.1287 11.0004 13.2604 11.0004V13.0004C13.9767 13.0004 14.6004 13.6032 14.6004 14.4004H16.6004ZM13.2604 17.8004C15.1287 17.8004 16.6004 16.2541 16.6004 14.4004H14.6004C14.6004 15.1976 13.9767 15.8004 13.2604 15.8004V17.8004ZM12.5404 11.0004H8.40039V13.0004H12.5404V11.0004ZM9.40039 12.0004V7.20039H7.40039V12.0004H9.40039ZM12.5404 6.20039H8.40039V8.20039H12.5404V6.20039ZM15.8804 9.60039C15.8804 7.74664 14.4087 6.20039 12.5404 6.20039V8.20039C13.2567 8.20039 13.8804 8.80317 13.8804 9.60039H15.8804ZM12.5404 13.0004C14.4087 13.0004 15.8804 11.4541 15.8804 9.60039H13.8804C13.8804 10.3976 13.2567 11.0004 12.5404 11.0004V13.0004ZM13.2604 11.0004H8.40039V13.0004H13.2604V11.0004ZM4.80039 3.40039H19.2004V1.40039H4.80039V3.40039ZM20.6004 4.80039V19.2004H22.6004V4.80039H20.6004ZM19.2004 20.6004H4.80039V22.6004H19.2004V20.6004ZM3.40039 19.2004V4.80039H1.40039V19.2004H3.40039ZM4.80039 20.6004C4.02719 20.6004 3.40039 19.9736 3.40039 19.2004H1.40039C1.40039 21.0782 2.92262 22.6004 4.80039 22.6004V20.6004ZM20.6004 19.2004C20.6004 19.9736 19.9736 20.6004 19.2004 20.6004V22.6004C21.0782 22.6004 22.6004 21.0782 22.6004 19.2004H20.6004ZM19.2004 3.40039C19.9736 3.40039 20.6004 4.02719 20.6004 4.80039H22.6004C22.6004 2.92262 21.0782 1.40039 19.2004 1.40039V3.40039ZM4.80039 1.40039C2.92262 1.40039 1.40039 2.92262 1.40039 4.80039H3.40039C3.40039 4.02719 4.02719 3.40039 4.80039 3.40039V1.40039Z" fill="black"/>
</g>
</svg>

<svg xmlns="http://www.w3.org/2000/svg" width="24" height="24" fill="none" viewBox="0 0 24 24"><path fill="currentColor" d="M8.4 16.8h-1v1h1zm0-9.6v-1h-1v1zm4.86 8.6H8.4v2h4.86zm-3.86 1V12h-2v4.8zm7.2-2.4c0-1.853-1.471-3.4-3.34-3.4v2c.717 0 1.34.603 1.34 1.4zm-3.34 3.4c1.869 0 3.34-1.546 3.34-3.4h-2c0 .798-.623 1.4-1.34 1.4zm-.72-6.8H8.4v2h4.14zM9.4 12V7.2h-2V12zm3.14-5.8H8.4v2h4.14zm3.34 3.4c0-1.853-1.471-3.4-3.34-3.4v2c.717 0 1.34.603 1.34 1.4zM12.54 13c1.869 0 3.34-1.546 3.34-3.4h-2c0 .798-.623 1.4-1.34 1.4zm.72-2H8.4v2h4.86zM4.8 3.4h14.4v-2H4.8zm15.8 1.4v14.4h2V4.8zm-1.4 15.8H4.8v2h14.4zM3.4 19.2V4.8h-2v14.4zm1.4 1.4a1.4 1.4 0 0 1-1.4-1.4h-2a3.4 3.4 0 0 0 3.4 3.4zm15.8-1.4a1.4 1.4 0 0 1-1.4 1.4v2a3.4 3.4 0 0 0 3.4-3.4zM19.2 3.4a1.4 1.4 0 0 1 1.4 1.4h2a3.4 3.4 0 0 0-3.4-3.4zm-14.4-2a3.4 3.4 0 0 0-3.4 3.4h2a1.4 1.4 0 0 1 1.4-1.4z"/></svg>
